resources/haticons/SVG/shuffle.svg

<!-- Generated by IcoMoon.io -->
<svg version="1.1" xmlns="http://www.w3.org/2000/svg" width="24" height="24" viewBox="0 0 24 24">
<title>shuffle</title>
<path d="M18 16.5h-2.379l-3.75-3.75 3.75-3.75h2.379v3.75l5.25-5.25-5.25-5.25v3.75h-3c-0.398 0-0.779 0.158-1.061 0.439l-4.189 4.189-4.189-4.189c-0.281-0.281-0.663-0.439-1.061-0.439h-4.5v3h3.879l3.75 3.75-3.75 3.75h-3.879v3h4.5c0.398 0 0.779-0.158 1.061-0.439l4.189-4.189 4.189 4.189c0.281 0.281 0.663 0.439 1.061 0.439h3v3.75l5.25-5.25-5.25-5.25v3.75z"></path>
</svg>

<svg xmlns="http://www.w3.org/2000/svg" width="24" height="24"><path d="M18 16.5h-2.379l-3.75-3.75L15.621 9H18v3.75l5.25-5.25L18 2.25V6h-3c-.398 0-.779.158-1.061.439L9.75 10.628 5.561 6.439A1.5 1.5 0 0 0 4.5 6H0v3h3.879l3.75 3.75-3.75 3.75H0v3h4.5c.398 0 .779-.158 1.061-.439l4.189-4.189 4.189 4.189A1.5 1.5 0 0 0 15 19.5h3v3.75L23.25 18 18 12.75v3.75z"/></svg>
